!!!OTL: 473. Verschwundenes Glueck.
!!!ARE: Europa, Mitteleuropa, Deutschland
!!!SCT: B0473
!!!TXL: @@DE
!!!YEM: Copyright 1995, estate of Helmut Schaffrath.
**kern	**text
*ICvox	*
*Ivox	*
*clefG2	*
*M4/4	*
*met(c)	*
*k[b-e-]	*
*B-:	*
!LO:TX:a:t=Sehr mäßig.	!
{8d	Ach,
8e-	ich
=1	=1
4f	fühl's,
8gL	es
8aJ	.
4b-	iſt
8ccL	ver-
8ddJ	.
=2	=2
(4.dd	-ſchwun-
8cc)	.
8ee-L	-den,
8dd}J	.
{16ccL	im-
16b-J	.
16aL	-mer-
16gJ	.
=3	=3
(8g	-hin,
4f)	.
8b-	der
(4a	Lie-
16b-qqL	.
16aqqJ	.
8g)	.
8a	-be
=4	=4
2b-	Glück!
4r}	.
{8d	Nim-
8e-	-mer
=5	=5
4f	kehr'n
8gL	die
8aJ	.
4b-	fro-
8ccL	-hen
8ddJ	.
=6	=6
(4.dd	Stun-
8cc)	.
8ee-L	-den,
8dd}J	.
{16ccL	nim-
16b-J	.
16aL	-mer
16gJ	.
=7	=7
(8g	keh-
4f)	.
8b-	-ren
(4a	ſie
16b-qqL	.
16aqqJ	.
8g)	.
8a	ʒu-
=8	=8
2b-	-rückt
4r}	.
{8a	Nim-
8b-	-mer-
=9	=9
4.cc	-mehr
8cc	die
8b-L	froh-
8aJ	.
8gL	-en
8fJ	.
=10	=10
8fL	Ta-
8b-J	.
4b-	-ge,
4r}	.
{8a	mein
8b-	erwünſcht'
=11	=11
4.cc	.
8cc	El-
8b-L	-y-
8aJ	.
8gL	-fi-
8fJ	.
=12	=12
2b-	-um;
4r}	.
{8d	eu-
8e-	-er
=13	=13
4f	An-
8gL	-ge-
8aJ	.
4b-	-den-
8ccL	-ken
8ddJ	.
=14	=14
(4.dd	tra-
8cc)	.
8ee-L	-ge
8dd}J	.
{16ccL	ich
16b-J	.
16aL	ʒur
16gJ	.
=15	=15
(8g	Qual
4f)	.
8b-	für
(4a	mich
16b-qqL	.
16aqqJ	.
8g)	.
8a	her-
=16	=16
2b-	-um!
4r}	.
{8d	eu-
8e-	-er
=17	=17
4f	An-
8gL	-ge-
8aJ	.
4b-	-den-
8ccL	-ken
8ddJ	.
=18	=18
(4.dd	tra-
8cc)	.
8ee-L	-ge
8dd}J	.
{16ccL	ich
16b-J	.
16aL	ʒur
16gJ	.
=19	=19
(8g	Qual
4f)	.
8b-	für
(4a	mich
16b-qqL	.
16aqqJ	.
8g)	.
8a	her-
=20	=20
2b-	-um!
4r}	.
==	==
!!!AGN: Liebes - Lied, Leid, Klage
!!!GTL: Liebeslieder - Liebesleid
!!!ONB: ESAC (Essen Associative Code) Database: BOEHME
!!!AMT: simple quadruple
!!!AIN: vox
!!!EED: Helmut Schaffrath
!!!EEV: 1.0
!!@@COMMENT:"Neueres Lied nach 1830, das mit ſeiner ſüßtändelnden Melodie vermuthlich einer italieniſchen
!!Oper von Bellini entnommen oder dem Operngeſange nach gebildet iſt. Sie wurde noch 1880 im
!!Main- und Lahnthale gehört. Jn den Rheinlanden 1890 wurde daʒu eine andrer Melodie, Gdur
!!Takt: h_a| g g h g| g__e e r. geſungen."
!!@@END:
!!!URL-scan: https://archive.org/details/BoehmeVtLieder1895/page/n379/mode/2up
!!!ENC: Anna Maria Matuszewska
!!!EEV: 2024/10/07
*-	*-
